source/img/facebook-logo.svg

<svg width="11" height="21" viewBox="0 0 11 21" fill="none" xmlns="http://www.w3.org/2000/svg">
<path d="M7.48786 20.8125H2.12929V11.1375H0V6.3525H2.06643C1.90929 4.185 2.30214 2.6025 3.26071 1.5225C3.71777 1.04316 4.27461 0.66015 4.89562 0.397985C5.51662 0.13582 6.18812 0.000268301 6.86714 0L10.6229 0V4.6125H7.66857C7.49452 5.1766 7.42799 5.76595 7.47214 6.3525H10.615V11.1375H7.47214L7.48786 20.8125ZM3.31571 19.6875H6.28571V10.0125H9.42857V7.5H6.28571V6.93C6.28571 5.43 6.28571 4.0875 7.07143 3.585L7.22071 3.4875H9.42857V1.125H6.89857C6.38444 1.11866 5.87465 1.21553 5.40225 1.40933C4.92986 1.60314 4.50541 1.88955 4.15643 2.25C3.37071 3.1725 3.04857 4.7175 3.29214 6.855L3.37071 7.4775H1.17857V10.0125H3.31571V19.6875Z" fill="#192144"/>
</svg>

<svg width="11" height="21" fill="none" xmlns="http://www.w3.org/2000/svg"><path d="M7.49 20.81H2.13v-9.67H0V6.35h2.07c-.16-2.17.23-3.75 1.2-4.83A4.88 4.88 0 016.86 0h3.75v4.61H7.67a4.7 4.7 0 00-.2 1.74h3.15v4.79H7.46l.02 9.67zM3.32 19.7h2.97V10h3.14V7.5H6.29v-.57c0-1.5 0-2.84.78-3.34l.15-.1h2.2V1.12H6.9a3.82 3.82 0 00-2.74 1.13c-.79.92-1.11 2.47-.87 4.6l.08.63h-2.2V10h2.15v9.68z" fill="#192144"/></svg>
